X:395
T: Judenvesper (4-95), S. 126
N: P0665
O: Lothringen
S: PINCK, Louis: Verklingende Weisen Bd 4, Kassel 1939]
R: ???]
M: 2/4
L: 1/8
K: F
C2 | F2F2 | E2E2 | D2D2 | C2z2
D4 | CCC2 | B,B,B,2 | A,3z
F2F2F2 | G2G2G2 | A2A2 | c3z
F4 | G2G2G2 | EEE2 | F2

